packages/core/src/svgs/tokens/branded/AVL.svg

<svg width="24" height="24" viewBox="0 0 24 24" fill="none" xmlns="http://www.w3.org/2000/svg">
<path fill-rule="evenodd" clip-rule="evenodd" d="M12 21.4117C17.1764 21.4117 21.4117 17.1765 21.4117 12C21.4117 6.82352 17.1764 2.58823 12 2.58823C6.82352 2.58823 2.58823 6.82352 2.58823 12C2.58823 17.1765 6.82352 21.4117 12 21.4117ZM12 22C14.6522 22 17.1957 20.9464 19.0711 19.071C20.9464 17.1957 22 14.6522 22 12C22 9.34785 20.9464 6.80429 19.0711 4.92892C17.1957 3.05357 14.6522 2 12 2C9.34784 2 6.80429 3.05357 4.92892 4.92892C3.05357 6.80429 2 9.34785 2 12C2 14.6522 3.05357 17.1957 4.92892 19.071C6.80429 20.9464 9.34784 22 12 22Z" fill="#A2C3E6"/>
<path d="M17.2938 5.5294H6.70557V16.2059C6.70557 17.0411 7.24673 17.694 8.32321 18.1765C8.68203 18.3412 9.1585 18.5059 9.75847 18.6765L11.0938 19.0588L11.282 19.1411C11.5554 19.249 11.7979 19.4228 11.9879 19.647C12.2282 19.3843 12.5321 19.1878 12.8703 19.0765C13.0291 19.0176 13.4703 18.8824 14.188 18.6765C14.8115 18.5 15.2938 18.3353 15.6408 18.1824C16.7409 17.7059 17.2938 17.047 17.2938 16.2059V5.5294Z" fill="white"/>
<path d="M11.6288 18.7646C11.7464 18.8412 11.864 18.9411 11.9876 19.0588L12.2582 18.8294C12.3818 18.7353 12.5522 18.6529 12.764 18.5824C12.9111 18.5235 13.3052 18.4177 13.9406 18.247C14.4934 18.0941 14.9288 17.9529 15.2346 17.8294C16.2169 17.4235 16.7053 16.8647 16.7053 16.1588V6.11765H7.29346V16.1588C7.29346 16.8647 7.77581 17.4176 8.72874 17.8235C9.05228 17.9588 9.47579 18.1 10.0111 18.2411L11.1993 18.5646L11.6288 18.7646Z" fill="#A3C4E9"/>
<path d="M9.64655 9.14117L9.04066 9.04705L8.76419 8.47058L8.49361 9.04705L7.88184 9.14117L8.32301 9.59409L8.21713 10.2353L8.76419 9.92941L9.31123 10.2353L9.20537 9.58819L9.64655 9.14117Z" fill="white"/>
<path d="M10.2354 10.9411C10.2295 11.0353 10.2413 11.1 10.2941 11.1529C10.2177 11.2 10.2354 11.2764 10.2647 11.3471C10.3339 11.461 10.4396 11.5482 10.5648 11.5942C10.5941 11.553 10.5236 11.4529 10.5471 11.3824C10.6353 11.4411 10.7236 11.4882 10.7823 11.4823C10.7411 11.4117 10.7354 11.3647 10.7529 11.3471C10.9118 11.2293 11.1001 11.0823 11.2118 11.053C11.3 11.0234 11.3942 11.0823 11.4118 11.1824C11.4295 11.3 11.3765 11.394 11.2941 11.4764C11.1412 11.6176 10.9354 11.6882 10.7766 11.847C10.5236 12.094 10.4706 12.3647 10.1647 12.3765C10.3353 12.2824 10.4294 12.1941 10.5236 12.0294C9.92352 12.1117 9.55293 11.8235 9.18237 11.6529C9.01766 11.5824 8.85296 11.5646 8.76473 11.5471C8.63003 11.4418 8.53807 11.2914 8.50591 11.1235C8.46473 10.9176 8.52354 10.7352 8.31179 10.7117C8.19413 10.5647 8.03532 10.4647 7.80591 10.5941C7.92355 10.6117 8.01767 10.6412 8.07649 10.8C8.05884 10.8235 8.01767 10.8587 8.01767 10.8942C7.9412 10.8999 7.91768 10.9058 7.86472 10.9529C7.66473 10.8764 7.47061 10.9058 7.37649 11.0823C7.51767 11.053 7.62355 11.053 7.72356 11.1412C7.73532 11.2 7.74119 11.2352 7.77649 11.2823C7.74071 11.3024 7.70994 11.3302 7.6865 11.3638C7.66307 11.3975 7.64757 11.4359 7.6412 11.4764C7.4765 11.5118 7.37649 11.5942 7.37061 11.7353C7.48826 11.6647 7.6059 11.6529 7.66473 11.6706C7.7059 11.7059 7.73532 11.7705 7.81767 11.7882C7.9059 11.8117 8.07649 11.7823 8.1765 11.8058C8.21767 11.8647 8.22944 11.9 8.22355 11.9352C8.21178 12.0883 7.92944 11.9882 7.95885 12.2176C7.85885 12.2412 7.80002 12.2118 7.72356 12.1588C7.77649 12.3823 7.92355 12.4823 8.12356 12.3765C8.28826 12.4118 8.39414 12.2587 8.5412 12.1823C8.68825 12.1117 8.90002 12.2059 9.01766 12.2764C9.20591 12.3941 9.40003 12.5412 9.50008 12.8823C9.56473 12.8235 9.61181 12.7353 9.61771 12.647L10.1 13.0411L9.07062 13.747C9.00003 13.7941 8.92355 13.8412 8.84708 13.8118C8.78825 13.7941 8.74708 13.7294 8.69414 13.6823C8.61179 13.6176 8.50591 13.5706 8.38825 13.6235C8.20591 13.6235 8.03532 13.6587 8.00003 13.9058C8.05884 13.8589 8.11767 13.8118 8.22944 13.8471C8.22944 13.9058 8.24709 13.9588 8.28826 14.0059C8.22943 14.0352 8.19413 14.0823 8.19413 14.1176C8.01766 14.1235 7.90002 14.2058 7.88237 14.3883C7.97649 14.3 8.05884 14.2647 8.1765 14.3059C8.20591 14.4823 8.30003 14.5118 8.41179 14.4941C8.38238 14.5764 8.37062 14.6294 8.41179 14.6941C8.35296 14.8117 8.41767 14.9588 8.50002 15.0118C8.49415 14.9411 8.50002 14.8529 8.55296 14.8176C8.64707 14.8353 8.71766 14.8 8.81767 14.6882C8.82619 14.7308 8.8501 14.7687 8.88483 14.7948C8.91955 14.8207 8.96265 14.8331 9.0059 14.8294C9.01766 14.9294 9.06473 15.0059 9.13532 15.0587C9.11308 14.9764 9.10906 14.8901 9.12355 14.8059C9.29997 14.6882 9.26469 14.553 9.2942 14.3999C9.32358 14.2294 9.4235 14.1529 9.57654 14.0647C9.87067 13.8882 10.2295 13.7588 10.7882 13.7176C10.9647 13.9058 11.1412 14.1059 11.3588 14.2764C11.0236 14.5177 10.7941 14.4176 10.5177 14.447C10.3942 14.4588 10.2295 14.5059 10.1412 14.5941C10.0648 14.6647 10.0236 14.7529 9.93532 14.7941C9.87067 14.8235 9.78242 14.8294 9.67646 14.7529C9.67056 14.9706 9.77061 15.0471 10.0236 15.0294C9.93532 15.1235 9.84116 15.1588 9.64709 15.0999C9.72944 15.2705 9.85887 15.3353 10.0648 15.3176C10.1177 15.6117 10.5471 15.7764 10.4706 16.0117C10.3648 16.3294 9.57063 16.4176 9.2824 16.2529C9.07649 16.1352 8.98826 15.9471 8.75297 16.0058C8.61767 15.9 8.37649 15.8647 8.27649 16.1236C8.45297 16.0353 8.52943 16.0824 8.48826 16.1823C8.1765 16.1823 8.05884 16.3235 8.10591 16.5117C8.16473 16.4118 8.22355 16.3941 8.3059 16.4C8.27192 16.4734 8.25772 16.5545 8.26472 16.6352C8.11178 16.7117 8.10591 16.8647 8.1765 16.9883C8.21767 16.8882 8.23531 16.7941 8.33531 16.7882C8.39414 16.8529 8.47061 16.9059 8.57061 16.9353C8.53532 17.0941 8.54708 17.2411 8.60002 17.3646C8.63531 17.2529 8.67061 17.1882 8.71766 17.1353C8.87649 17.2353 9.04708 17.2353 9.21178 17.1942C9.54703 17.1176 9.75881 16.8823 10.0177 16.8823C10.1647 16.8823 10.2354 16.9824 10.1353 17.1C10.3471 17.0882 10.4588 17.0411 10.5589 16.994C10.7177 16.9117 10.8177 16.8118 10.9706 16.7765C11.2295 16.7176 11.5883 16.9824 11.7648 16.6941C11.5589 16.7235 11.4411 16.6412 11.4118 16.5588C11.6647 16.5941 11.8235 16.5882 11.9648 16.4C11.9025 16.4126 11.8382 16.4126 11.7759 16.3997C11.7136 16.387 11.6546 16.3616 11.6023 16.3253C11.5501 16.2891 11.5058 16.2426 11.472 16.1886C11.4383 16.1347 11.4158 16.0746 11.4059 16.0117C11.3824 15.8647 11.4354 15.5883 11.7824 15.5C11.9 15.2941 11.9589 15.1882 12.0765 15.0176L12.1177 14.8529C12.1411 14.9294 12.1588 15 12.1354 15.0883C12.0942 15.2059 12 15.3353 11.9412 15.4764C11.8941 15.594 11.8824 15.7118 11.8824 15.8117C11.8941 15.9293 11.9412 16.0412 12.0235 16.1293C12.1707 16.2824 12.3765 16.4 12.2294 16.7C12.3882 16.6882 12.4765 16.6234 12.6295 16.4646C12.7471 16.5411 12.8411 16.653 12.7942 16.7941C12.9942 16.7412 13.1177 16.6059 13.1883 16.4059C13.4706 16.4176 13.6235 16.4646 13.6589 16.5588C13.7001 16.7176 13.2471 17.3118 12.6823 17.3352C12.5883 17.3118 12.5176 17.2294 12.4471 17.1999C12.3882 17.1705 12.2942 17.1764 12.2177 17.2765C12.0412 17.2294 11.8353 17.2765 11.7765 17.4529C11.6706 17.4882 11.5765 17.6294 11.5942 17.747C11.6295 17.7235 11.753 17.6471 11.8001 17.6412C11.8117 17.6824 11.8824 17.7176 11.9236 17.7294C11.6882 17.9117 11.6765 18.0646 11.6941 18.1412C11.8001 17.9941 11.9177 17.9647 11.9764 17.9706C12.0176 18.0646 12.0942 18.1 12.2118 18.1117L12.2235 18.3647L12.4236 18.1647C12.6707 18.2705 12.9353 18.2059 13.1177 18.0823C13.4588 17.8587 13.6 17.4176 13.853 17.447C13.9117 17.447 13.9588 17.5 13.9294 17.5647C13.9941 17.5764 14.053 17.5529 14.1 17.5059C14.2 17.4058 14.2588 17.1942 14.447 16.9471C14.5648 16.7941 14.8471 16.6234 14.9295 16.4646C14.8 16.547 14.6412 16.5235 14.6235 16.453C14.8588 16.3411 15.0647 16.2176 15.1529 15.9234C15.0378 15.9796 14.9104 16.0059 14.7823 16C14.8883 15.7999 14.9236 15.594 14.8235 15.4588C14.5 15.8823 14.1118 15.8117 13.9529 15.7118C13.8294 15.6352 13.7177 15.5235 13.7058 15.253C13.7058 15.1882 13.7176 15.0764 13.7529 14.9706C13.7882 14.8647 13.8294 14.7823 13.8294 14.6882C14.1724 14.8826 14.5587 14.9879 14.9529 14.9941C15.4589 14.9764 15.7883 14.6176 15.7765 14.1706C15.7541 13.9238 15.6458 13.6928 15.4707 13.5176C15.253 13.2765 14.9529 13.047 14.753 12.8058C14.6529 12.6764 14.5765 12.5353 14.553 12.4059C14.5059 12.2 14.5412 11.9647 14.7882 11.7589C15.0589 11.9 15.3117 11.9529 15.553 11.9352C15.8001 11.9236 15.9942 11.7941 16.1823 11.6529C16.2706 11.5942 16.3588 11.5235 16.5354 11.5412C16.4917 11.4996 16.4398 11.4675 16.3831 11.4473C16.3263 11.427 16.2659 11.4189 16.2059 11.4235C16.5941 11.0118 16.7529 10.4824 16.5354 10.1294C16.5001 10.3353 16.4177 10.3823 16.347 10.4235C16.253 10.4824 16.1764 10.4941 16.0412 10.5588C16.1118 10.4412 16.1059 10.3471 16.0588 10.2058C15.8941 10.5941 15.6766 10.5 15.3706 10.7823C15.4108 10.6669 15.4045 10.5403 15.3529 10.4294C15.3432 10.4824 15.3224 10.5328 15.292 10.5774C15.2616 10.622 15.2222 10.6597 15.1765 10.6883C14.9 10.8646 14.5589 10.9058 14.6235 11.4941C14.2706 11.7412 14.1412 12.0353 14.1647 12.3294C14.1824 12.5765 14.2941 12.7999 14.4765 13.0117C14.6647 13.2353 14.9295 13.4412 15.1236 13.6412C15.3235 13.8646 15.5176 14.2529 15.2942 14.5234C15.147 14.7059 14.7236 14.8117 13.8412 14.3235C13.7941 13.9 13.4294 13.4706 13.353 13.0882C13.3236 12.9412 13.3353 12.8176 13.3648 12.6882C13.3941 12.5706 13.4353 12.453 13.4294 12.3058C13.5823 12.4234 13.7588 12.4471 13.8883 12.4C13.8306 12.3777 13.7813 12.3381 13.7476 12.2863C13.7138 12.2346 13.6972 12.1735 13.7001 12.1117C13.7001 11.8882 13.8471 11.6647 13.7117 11.4117C13.8236 11.4823 13.9471 11.5294 14.0882 11.4706C13.7706 11.2882 14.0648 11.0471 13.9117 10.7352C14.0236 10.7823 14.1824 10.7823 14.3 10.7235C13.9235 10.6471 14.1235 10.2235 13.7941 9.9412C13.9353 9.9471 14.0471 9.88822 14.1176 9.79996C13.7765 9.84704 13.6059 9.44708 13.3177 9.2235C13.1754 9.11958 13.0127 9.04697 12.8403 9.01046C12.6679 8.97396 12.4899 8.9744 12.3177 9.01175C12.3177 8.96468 12.4118 8.88822 12.5235 8.83528C12.1707 8.70586 11.806 8.79998 11.4941 9.04704C11.5028 8.99134 11.4988 8.9344 11.4826 8.88045C11.4663 8.82649 11.438 8.77688 11.4 8.73528C11.3588 8.95881 10.9824 9.08821 10.8471 9.27057C10.784 9.34867 10.7506 9.44667 10.7529 9.547C10.4176 9.75878 10.3236 9.74122 10.2236 9.99994C10.0529 10.1176 9.84706 10.2529 9.72354 10.3764C9.72354 10.4117 9.74714 10.4588 9.75881 10.5L9.85297 10.4176C9.8365 10.4533 9.8295 10.4925 9.83265 10.5317C9.83567 10.5708 9.84885 10.6085 9.87067 10.6412C9.94712 10.7588 10.1059 10.8294 10.2001 10.8765C10.1412 10.7295 10.1589 10.6883 10.2295 10.6471C10.3765 10.5647 10.7177 10.5882 10.747 10.6353C10.7882 10.694 10.7354 10.9529 10.553 11.0234C10.4176 11.0764 10.3294 11.0353 10.2295 10.947L10.2354 10.9411ZM10.8235 9.92349C10.747 9.99404 10.7529 10.1 10.6647 10.1412C10.6059 10.1765 10.5353 10.1646 10.5059 10.1412C10.4647 10.0941 10.4471 10.0352 10.5059 9.97647C10.5648 9.91169 10.7118 9.91759 10.8294 9.91759L10.8235 9.92349Z" fill="#FFE500"/>
<path d="M9.2171 7.88232C9.24063 7.88232 9.25239 7.89997 9.25823 7.9235L9.34648 8.14703C9.43474 8.34115 9.43474 8.35291 9.21122 8.38233C9.20545 8.38747 9.20088 8.39384 9.19782 8.40095C9.19477 8.40806 9.19333 8.41576 9.19358 8.4235C9.19358 8.44703 9.19945 8.45879 9.2171 8.47056H10.2112C10.2289 8.45879 10.2348 8.44114 10.2348 8.4235C10.2348 8.39996 10.223 8.3882 10.2112 8.37644C10.076 8.36468 9.97003 8.35291 9.91128 8.22938L9.8524 8.13527L9.38176 7.11173L9.22887 6.7588C9.22298 6.72349 9.19358 6.70586 9.1524 6.70586L9.06416 6.77056C9.00533 6.81173 8.94063 6.84115 8.85239 6.86467C8.85239 6.9235 8.81121 7.04114 8.7171 7.19409L8.41123 7.82349L8.19946 8.24115C8.13476 8.35879 8.02886 8.37055 7.89357 8.37644C7.88838 8.383 7.88465 8.39059 7.88262 8.3987C7.88059 8.40681 7.88031 8.41527 7.88181 8.4235C7.88181 8.44703 7.89357 8.45879 7.90533 8.47056H8.66416C8.67592 8.46468 8.68769 8.44703 8.68769 8.4235C8.68769 8.40585 8.68181 8.3882 8.67005 8.37644C8.52887 8.35879 8.40534 8.37644 8.46417 8.22938L8.59357 7.92939C8.59946 7.89997 8.61711 7.88821 8.62887 7.88232H9.2171ZM8.69357 7.7235C8.68181 7.71173 8.68181 7.69409 8.70534 7.66468L8.78769 7.46467C8.84652 7.33527 8.88769 7.24115 8.92887 7.17643C8.96416 7.23526 9.00533 7.32938 9.0524 7.45291L9.14063 7.66468C9.16417 7.69409 9.16417 7.71762 9.1524 7.7235H8.69357ZM11.4583 7.35292C11.57 7.14703 11.6583 6.99997 11.7288 6.9235C11.7877 6.84115 11.8935 6.83526 11.9877 6.81762C11.9995 6.80585 12.0054 6.79408 12.0054 6.77056C12.0054 6.75291 11.9936 6.71173 11.9818 6.70586H11.2877C11.2642 6.71173 11.2583 6.74703 11.2583 6.76467C11.2583 6.78821 11.2583 6.80585 11.2701 6.81762C11.3113 6.8235 11.4524 6.82939 11.4524 6.87644L11.423 6.97055C11.3641 7.11173 11.2759 7.29409 11.1641 7.50585L11.0465 7.74703L10.9465 7.94115L10.5583 7.16467L10.4641 6.97055C10.4054 6.84702 10.4641 6.84115 10.6113 6.81762C10.6202 6.80362 10.6243 6.78711 10.623 6.77056C10.623 6.75291 10.623 6.71173 10.6054 6.70586H9.68179C9.66999 6.71173 9.66423 6.74703 9.65832 6.76467C9.65242 6.78821 9.65832 6.79997 9.66999 6.8235C9.90538 6.86467 9.95246 6.91761 10.0406 7.11762L10.5642 8.15879L10.6994 8.4529C10.7171 8.46468 10.7465 8.47056 10.7877 8.47056C10.8347 8.47056 10.87 8.46468 10.8995 8.44703L11.223 7.79997L11.4583 7.35292ZM12.7994 6.94115C12.7994 6.89409 12.7994 6.8588 12.8171 6.84702L12.9113 6.83526H13.2112C13.2994 6.83526 13.3642 6.84115 13.417 6.8588C13.4759 6.87056 13.5112 6.89409 13.5348 6.91761C13.5701 6.95291 13.6054 7.0235 13.6347 7.12938C13.6583 7.14115 13.6818 7.14115 13.7112 7.14115C13.7348 7.14115 13.7524 7.13526 13.7642 7.11762L13.7583 6.70586H12.07C12.0525 6.71173 12.0466 6.72938 12.0466 6.74703C12.0466 6.77056 12.0466 6.78821 12.0641 6.79997L12.1348 6.80585C12.2113 6.81173 12.2524 6.82939 12.2759 6.86467C12.2936 6.89998 12.2936 6.97644 12.2936 7.09997V8.08232C12.2936 8.30585 12.2641 8.34703 12.017 8.37644C12.0054 8.3882 11.9995 8.39996 11.9995 8.4235C11.9995 8.44703 12.0054 8.45879 12.017 8.47056H13.0994C13.1112 8.45879 13.1171 8.44114 13.1171 8.4235C13.1171 8.39996 13.1112 8.3882 13.0994 8.37644C12.8524 8.35291 12.7994 8.30585 12.8053 8.08232V7.72938C12.8053 7.6882 12.8053 7.66468 12.823 7.65291C12.8289 7.64703 12.8524 7.64115 12.8995 7.64115H13.1936C13.2539 7.6379 13.3141 7.64793 13.3701 7.67055C13.4054 7.6882 13.4229 7.72938 13.4348 7.78821L13.4525 7.85291C13.47 7.86467 13.4936 7.87056 13.5171 7.87056C13.5465 7.87056 13.5701 7.86467 13.576 7.85291V7.29409C13.5701 7.28233 13.5465 7.27056 13.5171 7.27056C13.4956 7.27221 13.475 7.28042 13.4582 7.29409L13.4348 7.35292C13.4229 7.41173 13.3995 7.45879 13.3759 7.47645C13.3347 7.49408 13.2759 7.50585 13.1877 7.50585H12.8936C12.8524 7.50585 12.8289 7.49997 12.8171 7.48821C12.8053 7.47645 12.7994 7.4588 12.7994 7.42349V6.94115ZM15.2347 6.70586C14.5995 6.70586 14.0583 6.96468 14.0583 7.61174C14.0583 8.2588 14.6112 8.47056 15.2288 8.47056C15.3759 8.47056 15.5113 8.45879 15.6406 8.43527L15.9759 8.37644C16.0348 8.30585 16.0818 8.17645 16.1171 7.97644C16.1053 7.95879 16.0818 7.94702 16.0523 7.94702C16.0171 7.94702 15.9936 7.94702 15.9759 7.95879C15.9267 8.04519 15.8609 8.1209 15.7821 8.18151C15.7033 8.24211 15.6133 8.28639 15.517 8.31174C15.4347 8.34115 15.3407 8.35291 15.223 8.35291C14.9642 8.37644 14.7524 8.04114 14.7465 7.61174C14.7465 7.19409 14.8877 6.8235 15.2053 6.8235C15.57 6.8235 15.7995 6.94115 15.8994 7.18821C15.923 7.19997 15.9465 7.19997 15.9759 7.19997C16.0112 7.19408 16.0348 7.18232 16.0348 7.17056C16.0097 7.03864 15.9958 6.90482 15.9936 6.77056C15.9347 6.77056 15.8465 6.75291 15.7172 6.73527C15.5818 6.71762 15.423 6.70586 15.2347 6.70586Z" fill="#7B003A"/>
</svg>

<svg xmlns="http://www.w3.org/2000/svg" width="24" height="24" fill="none" viewBox="0 0 24 24">
    <path fill="#A2C3E6" fill-rule="evenodd" d="M12 21.412c5.176 0 9.412-4.235 9.412-9.412 0-5.176-4.236-9.412-9.412-9.412S2.588 6.824 2.588 12 6.824 21.412 12 21.412M12 22a10 10 0 1 0 0-20 10 10 0 0 0 0 20" clip-rule="evenodd"/>
    <path fill="#fff" d="M17.294 5.53H6.706v10.676c0 .835.54 1.488 1.617 1.97q.537.246 1.435.5l1.336.383.188.082c.273.108.516.282.706.506.24-.263.544-.46.882-.57q.24-.091 1.318-.4.934-.265 1.453-.495 1.651-.714 1.653-1.976z"/>
    <path fill="#A3C4E9" d="M11.629 18.765q.174.115.359.294l.27-.23a1.8 1.8 0 0 1 .506-.247c.147-.059.541-.164 1.177-.335.552-.153.988-.294 1.294-.418q1.471-.61 1.47-1.67V6.118H7.293v10.04c0 .707.483 1.26 1.436 1.665.323.136.747.277 1.282.418l1.188.324z"/>
    <path fill="#fff" d="m9.647 9.141-.606-.094-.277-.576-.27.576-.612.094.441.453-.106.641.547-.306.547.306-.106-.647z"/>
    <path fill="#FFE500" d="M10.235 10.941c-.005.094.006.159.06.212-.077.047-.06.123-.03.194a.6.6 0 0 0 .3.247c.03-.041-.041-.141-.018-.212.088.06.177.106.235.1-.04-.07-.047-.117-.03-.135.16-.118.348-.265.46-.294.088-.03.182.03.2.13.018.117-.036.211-.118.293-.153.142-.359.212-.517.371-.253.247-.306.518-.612.53a.82.82 0 0 0 .359-.348c-.6.083-.971-.206-1.342-.376-.164-.07-.329-.088-.417-.106a.7.7 0 0 1-.26-.424c-.04-.205.019-.388-.193-.411-.118-.147-.277-.247-.506-.118.118.018.212.047.27.206-.017.023-.058.059-.058.094-.077.006-.1.012-.153.059-.2-.077-.394-.047-.489.13.142-.03.248-.03.348.058.011.059.017.094.052.141a.27.27 0 0 0-.135.194c-.165.036-.265.118-.27.26.117-.071.235-.083.294-.065.04.035.07.1.153.117.088.024.258-.006.359.018.04.059.052.094.047.13-.012.152-.295.052-.265.282-.1.023-.159-.006-.235-.06.052.224.2.324.4.219.164.035.27-.118.417-.195.147-.07.359.024.477.094.188.118.382.265.482.606a.36.36 0 0 0 .118-.235l.482.394-1.03.706c-.07.047-.146.094-.223.065-.059-.018-.1-.083-.153-.13-.082-.064-.188-.111-.306-.059-.182 0-.353.036-.388.283.059-.047.118-.094.23-.059q-.002.089.058.159c-.059.03-.094.076-.094.112-.176.005-.294.088-.312.27.094-.088.177-.123.295-.082.029.176.123.206.235.188-.03.082-.041.135 0 .2-.059.118.006.265.088.318-.006-.07 0-.16.053-.194.094.017.165-.018.265-.13a.18.18 0 0 0 .188.141c.012.1.059.177.13.23a.6.6 0 0 1-.012-.253c.176-.118.14-.253.17-.406.03-.17.13-.247.283-.335.294-.177.652-.306 1.211-.347.177.188.353.388.57.558-.334.242-.564.142-.84.171-.124.012-.289.059-.377.147-.076.07-.117.159-.206.2-.064.03-.153.035-.259-.041-.005.218.095.294.348.276-.089.095-.183.13-.377.07.082.172.212.236.418.219.053.294.482.458.406.694-.106.317-.9.406-1.189.24-.206-.117-.294-.305-.529-.246-.135-.106-.377-.141-.477.118.177-.089.253-.042.212.058-.311 0-.43.142-.382.33.059-.1.118-.118.2-.112a.46.46 0 0 0-.041.235c-.153.077-.16.23-.088.353.04-.1.058-.194.158-.2a.5.5 0 0 0 .236.147.7.7 0 0 0 .029.43.6.6 0 0 1 .118-.23c.158.1.33.1.494.06.335-.077.547-.313.806-.313.147 0 .217.1.117.218.212-.012.324-.059.424-.106.159-.082.259-.182.412-.218.258-.058.617.206.794-.082-.206.03-.324-.053-.353-.135.253.035.411.03.553-.159a.47.47 0 0 1-.56-.388c-.023-.147.03-.424.377-.512.118-.206.177-.312.294-.482l.042-.165a.4.4 0 0 1 .017.235c-.04.118-.135.247-.194.388a.9.9 0 0 0-.059.336.54.54 0 0 0 .142.317c.147.153.353.271.205.571.16-.012.248-.077.4-.235.118.076.212.188.165.33.2-.054.324-.19.394-.39.283.013.435.06.47.154.042.159-.41.753-.976.776-.094-.023-.164-.106-.235-.135-.059-.03-.153-.024-.23.076-.176-.047-.382 0-.44.177-.106.035-.2.176-.183.294a1 1 0 0 1 .206-.106c.012.041.082.077.124.088-.236.183-.247.336-.23.412.106-.147.224-.176.282-.17.042.094.118.129.236.14l.011.254.2-.2a.74.74 0 0 0 .695-.083c.34-.223.482-.664.735-.635.059 0 .106.053.076.118a.19.19 0 0 0 .171-.06c.1-.1.159-.31.347-.558.118-.153.4-.324.483-.482-.13.082-.289.058-.306-.012.235-.112.44-.235.529-.53a.76.76 0 0 1-.37.077c.105-.2.14-.406.04-.541-.323.423-.711.353-.87.253-.124-.077-.235-.188-.247-.459 0-.065.012-.177.047-.282.035-.106.076-.189.076-.283.343.195.73.3 1.124.306.506-.018.835-.376.824-.823a1.06 1.06 0 0 0-.306-.653c-.218-.242-.518-.471-.718-.712a1 1 0 0 1-.2-.4c-.047-.206-.012-.441.235-.647.27.141.524.194.765.176.247-.011.441-.14.63-.282.088-.059.176-.13.352-.112a.43.43 0 0 0-.33-.117c.39-.412.548-.942.33-1.295-.035.206-.117.253-.188.295-.094.058-.17.07-.306.135.07-.118.065-.212.018-.353-.165.388-.382.294-.688.576a.47.47 0 0 0-.018-.353.4.4 0 0 1-.176.26c-.277.176-.618.217-.553.805-.353.247-.483.541-.46.835.018.247.13.47.313.683.188.223.453.43.647.63.2.223.394.61.17.881-.147.183-.57.289-1.453-.2-.047-.423-.412-.852-.488-1.235a.9.9 0 0 1 .012-.4c.03-.117.07-.235.064-.382.153.117.33.141.46.094a.29.29 0 0 1-.189-.288c0-.224.147-.447.012-.7.112.07.235.117.376.059-.317-.183-.023-.424-.176-.736.112.047.27.047.388-.011-.377-.077-.177-.5-.506-.783a.38.38 0 0 0 .324-.141c-.341.047-.512-.353-.8-.577a1.25 1.25 0 0 0-1-.211c0-.047.094-.124.206-.177-.353-.13-.718-.035-1.03.212a.38.38 0 0 0-.094-.312c-.041.224-.418.353-.553.536a.43.43 0 0 0-.094.276c-.335.212-.43.194-.53.453-.17.118-.376.253-.5.376 0 .036.024.083.036.124l.094-.082a.23.23 0 0 0 .018.223c.076.118.235.188.33.236-.06-.148-.042-.189.028-.23.148-.082.489-.059.518-.012.041.059-.012.318-.194.388-.135.053-.224.012-.324-.076zm.588-1.018c-.076.071-.07.177-.158.218-.06.036-.13.024-.16 0-.04-.047-.058-.106 0-.165.06-.064.207-.058.324-.058z"/>
    <path fill="#7B003A" d="M9.217 7.882c.024 0 .035.018.041.042l.088.223c.089.194.089.206-.135.235a.05.05 0 0 0-.017.042c0 .023.005.035.023.047h.994a.05.05 0 0 0 .024-.047c0-.024-.012-.036-.024-.048-.135-.011-.241-.023-.3-.147l-.059-.094-.47-1.023-.153-.353c-.006-.036-.035-.053-.077-.053l-.088.065a.6.6 0 0 1-.212.094c0 .058-.04.176-.135.33l-.306.628-.212.418c-.064.118-.17.13-.305.135a.06.06 0 0 0-.012.048c0 .023.012.035.023.047h.76a.06.06 0 0 0 .023-.047.07.07 0 0 0-.018-.048c-.141-.017-.265 0-.206-.147l.13-.3a.06.06 0 0 1 .035-.047zm-.523-.159c-.012-.011-.012-.029.011-.058l.083-.2c.059-.13.1-.224.14-.289q.054.09.124.277l.089.212c.023.03.023.053.011.058zm2.764-.37c.112-.206.2-.353.27-.43.06-.082.165-.088.26-.105a.06.06 0 0 0 .017-.047c0-.018-.011-.06-.023-.065h-.694c-.024.006-.03.041-.03.059 0 .023 0 .04.012.053.041.006.182.011.182.058l-.029.095a7 7 0 0 1-.259.535l-.117.241-.1.194-.389-.776-.094-.194c-.059-.124 0-.13.147-.153a.1.1 0 0 0 .012-.047c0-.018 0-.06-.018-.065h-.923c-.012.006-.018.041-.024.059-.006.023 0 .035.012.059.235.04.282.094.37.294l.524 1.04.135.295q.027.018.089.018a.2.2 0 0 0 .111-.024l.324-.647zM12.8 6.94c0-.047 0-.082.018-.094l.094-.012h.3c.088 0 .153.006.206.024a.22.22 0 0 1 .118.059q.054.053.1.211c.023.012.047.012.076.012q.035.001.053-.023l-.006-.412H12.07c-.018.006-.023.023-.023.041 0 .024 0 .041.017.053l.07.006c.077.006.118.023.142.059.018.035.018.111.018.235v.982c0 .224-.03.265-.277.294-.012.012-.018.024-.018.048 0 .023.006.035.018.047h1.082a.07.07 0 0 0 .018-.047c0-.024-.006-.036-.018-.048-.247-.023-.3-.07-.294-.294V7.73c0-.04 0-.064.018-.076q.008-.01.076-.012h.295q.091-.005.176.03c.035.017.053.058.065.117l.018.065a.1.1 0 0 0 .064.018c.03 0 .053-.006.059-.018v-.559c-.006-.012-.03-.023-.059-.023a.1.1 0 0 0-.059.023l-.023.059c-.012.059-.036.106-.06.123a.5.5 0 0 1-.187.03h-.294q-.061 0-.077-.018c-.012-.012-.018-.03-.018-.065zm2.436-.235c-.635 0-1.177.259-1.177.906s.553.859 1.17.859q.22 0 .413-.036l.335-.059c.059-.07.106-.2.141-.4q-.019-.027-.065-.029c-.035 0-.058 0-.076.012a.75.75 0 0 1-.459.353.9.9 0 0 1-.294.04c-.259.024-.47-.31-.477-.74 0-.418.142-.788.46-.788.364 0 .594.117.693.364.024.012.048.012.077.012.035-.006.059-.018.059-.03a2.4 2.4 0 0 1-.041-.4c-.06 0-.147-.017-.277-.035a4 4 0 0 0-.482-.03"/>
</svg>
